X:1
T:piano exercises
C:Nan
K:Fmaj
M:3/4
T: 
||C'D'E'F'|G'A'B'A'|B2'B2'|C2'C2';(CDEF)|C,D,E,F,|G,A,B,A,|B2,B2,|C2,C2,||C'D'E'F'|G'A'B'A'|B2'B2'|C2'C2';(CDEF)|C,D,E,F,|G,A,B,A,|B2,B2,|C2,C2,